X: 30059
T: Ogham Stone, The
R: jig
M: 6/8
K: Gmajor
|:G2AB2A|GEDD2E|GABc2A|Bde edB|
G2AB2A|GEDD2E|GAB B2A|GEEE3:|
|:d3 dBA|BAGG2d|egeg2a|ged BAA|
ged Bge|dBA G3|GAB B2A|GEEE3:|

